; generated by PrusaSlicer 2.9.0 on 2025-03-06 at 21:18:06 UTC


;
;
; 

; external perimeters extrusion width = 0.45mm
; perimeters extrusion width = 0.45mm
; infill extrusion width = 0.45mm
; solid infill extrusion width = 0.45mm
; top infill extrusion width = 0.40mm
; support material extrusion width = 0.35mm
; first layer extrusion width = 0.42mm

M73 P0 R21
M73 Q0 S21
M201 X1000 Y1000 Z200 E5000 ; sets maximum accelerations, mm/sec^2
M203 X200 Y200 Z12 E120 ; sets maximum feedrates, mm / sec
M204 S1250 T1250 ; sets acceleration (S) and retract acceleration (R), mm/sec^2
M205 X8.00 Y8.00 Z0.40 E4.50 ; sets the jerk limits, mm/sec
M205 S0 T0 ; sets the minimum extruding and travel feed rate, mm/sec

; printing object Body1.obj id:0 copy 0
; stop printing object Body1.obj id:0 copy 0

;TYPE:Custom
M862.3 P "MK3S" ; printer model check
M862.1 P0.4 ; nozzle diameter check
M115 U3.14.1 ; tell printer latest fw version
G90 ; use absolute coordinates
M83 ; extruder relative mode
M104 S215 ; set extruder temp
M140 S60 ; set bed temp
M190 S60 ; wait for bed temp
M109 S215 ; wait for extruder temp
G28 W ; home all without mesh bed level
G80 X106.298 Y67.8966 W38.4655 H61.6436 ; mesh bed levelling

G1 Z0.2 F720
G1 Y-3 F1000 ; go outside print area
G92 E0
G1 X60 E9 F1000 ; intro line
G1 X100 E12.5 F1000 ; intro line

G92 E0
M221 S95

; Don't change E values below. Excessive value can damage the printer.
M907 E430 ; set extruder motor current
G21 ; set units to millimeters
G90 ; use absolute coordinates
M83 ; use relative distances for extrusion

M900 K0.05 ; Filament gcode LA 1.5
M900 K30 ; Filament gcode LA 1.0




M107
;LAYER_CHANGE
;Z:0.2
;HEIGHT:0.2
G1 E-.8 F2100
G1 Z.6 F720
G1 X111.353 Y71.613 F10800
G1 Z.2 F720
G1 E.8 F2100
M204 S800
;TYPE:Skirt/Brim
;WIDTH:0.42
G1 F1200
G1 X112.261 Y70.671 E.04102
G1 X112.951 Y70.433 E.02289
G1 X127.217 Y68.085 E.45332
G1 X135.433 Y68.085 E.25761
G1 X136.681 Y68.476 E.04101
G1 X137.39 Y69.295 E.03396
G1 X139.874 Y74.379 E.17741
G1 X142.249 Y83.999 E.31068
G1 X144.567 Y111.813 E.87511
G1 X144.575 Y122.528 E.33596
G1 X144.184 Y123.776 E.04101
G1 X143.365 Y124.485 E.03396
G1 X134.094 Y129.121 E.325
G1 X133.115 Y129.352 E.03154
G1 X117.946 Y129.352 E.47561
G1 X117.254 Y129.239 E.02198
G1 X110.301 Y126.922 E.22979
G1 X109.445 Y126.393 E.03155
M73 Q1 S21
G1 X107.127 Y124.075 E.10278
M73 P1 R21
G1 X106.486 Y122.528 E.0525
G1 X106.491 Y111.849 E.33483
G1 X108.809 Y77.082 E1.09252
G1 X109.035 Y76.248 E.02709
G1 X111.326 Y71.666 E.16062
M204 S1000
;WIPE_START
G1 F8640
G1 X111.353 Y71.613 E-.01373
G1 X112.261 Y70.671 E-.30211
G1 X112.951 Y70.433 E-.16853
G1 X114.3 Y70.211 E-.31563
;WIPE_END
G1 Z.6 F720
; printing object Body1.obj id:0 copy 0
G1 X135.433 Y74.909 F10800
G1 Z.2 F720
G1 E.8 F2100
M204 S800
;TYPE:Support material
G1 F1200
G1 X137.751 Y74.909 E.07268
G1 X137.751 Y84.181 E.29072
G1 X140.068 Y84.181 E.07265
G1 X140.068 Y92.396 E.25758
G1 X137.751 Y92.396 E.07265
G1 X137.751 Y97.032 E.14536
G1 X135.433 Y97.032 E.07268
G1 X135.433 Y99.349 E.07265
G1 X133.115 Y99.349 E.07268
G1 X133.115 Y102.723 E.10579
G1 X135.433 Y102.723 E.07268
G1 X135.433 Y105.041 E.07268
G1 X137.751 Y105.041 E.07268
G1 X137.751 Y111.994 E.21801
G1 X142.386 Y111.994 E.14533
G1 X142.386 Y122.528 E.33029
G1 X137.751 Y122.528 E.14533
G1 X137.751 Y124.845 E.07265
G1 X133.115 Y124.845 E.14536
G1 X133.115 Y127.163 E.07268
G1 X117.946 Y127.163 E.47561
G1 X117.946 Y124.845 E.07268
G1 X110.993 Y124.845 E.21801
G1 X110.993 Y122.528 E.07265
G1 X108.675 Y122.528 E.07268
G1 X108.675 Y111.994 E.33029
G1 X113.311 Y111.994 E.14536
G1 X113.311 Y105.041 E.21801
G1 X115.628 Y105.041 E.07265
G1 X115.628 Y102.723 E.07268
G1 X117.946 Y102.723 E.07268
G1 X117.946 Y101.667 E.03311
G1 X115.628 Y101.667 E.07268
G1 X115.628 Y99.349 E.07268
G1 X113.311 Y99.349 E.07265
G1 X113.311 Y97.032 E.07265
G1 X110.993 Y97.032 E.07268
G1 X110.993 Y77.227 E.62097
G1 X113.311 Y77.227 E.07268
G1 X113.311 Y72.592 E.14533
G1 X118.387 Y72.592 E.15915
M73 Q2 S21
G1 X118.599 Y73.202 E.02025
M73 P2 R21
G1 X117.815 Y73.403 E.02538
G1 X117.225 Y73.812 E.02251
G1 X116.759 Y74.436 E.02442
G1 X116.499 Y75.431 E.03225
G1 X116.515 Y76.119 E.02158
G1 X116.651 Y76.527 E.01348
G1 X117.264 Y77.304 E.03103
G1 X117.918 Y77.857 E.02685
G1 X116.846 Y78.222 E.03551
G1 X116.487 Y78.475 E.01377
G1 X116.063 Y78.977 E.0206
G1 X115.146 Y80.868 E.06589
G1 X114.439 Y83.009 E.07069
G1 X114.205 Y84.58 E.0498
G1 X114.199 Y86.293 E.05371
G1 X114.363 Y87.885 E.05018
G1 X114.799 Y89.484 E.05197
G1 X115.47 Y90.787 E.04595
G1 X116.388 Y91.983 E.04727
G1 X117.94 Y93.473 E.06746
G1 X119.012 Y94.095 E.03886
G1 X120.266 Y94.466 E.041
G1 X121.992 Y94.697 E.0546
G1 X124.897 Y94.761 E.09111
G1 X127.121 Y94.619 E.06987
G1 X128.996 Y94.314 E.05956
G1 X129.993 Y94.009 E.03269
G1 X131.074 Y93.411 E.03873
G1 X131.847 Y92.618 E.03472
G1 X132.768 Y91.004 E.05827
G1 X133.386 Y89.335 E.0558
G1 X133.895 Y86.943 E.07668
G1 X133.988 Y85.435 E.04737
G1 X133.843 Y83.855 E.04975
G1 X133.549 Y82.628 E.03956
G1 X132.978 Y81.041 E.05288
G1 X132.23 Y79.391 E.0568
G1 X131.489 Y78.055 E.0479
G1 X131.122 Y77.882 E.01272
G1 X130.21 Y77.738 E.02895
G1 X130.903 Y77.125 E.02901
G1 X131.318 Y76.503 E.02344
G1 X131.648 Y75.816 E.0239
G1 X131.926 Y74.842 E.03176
G1 X131.918 Y74.275 E.01778
G1 X131.818 Y73.975 E.00992
G1 X131.361 Y73.448 E.02187
G1 X130.421 Y73.04 E.03213
G1 X129.324 Y72.9 E.03467
G1 X127.217 Y72.925 E.06607
G1 X127.217 Y70.274 E.08312
G1 X135.433 Y70.274 E.25761
G1 X135.433 Y74.853 E.14357
M204 S1000
;WIPE_START
G1 F8640
G1 X135.433 Y71.388 E-.8
;WIPE_END
G1 Z.6 F720
G1 X141.871 Y122.358 F10800
G1 Z.2 F720
G1 E.8 F2100
M204 S800
G1 F1200
G1 X141.871 Y112.334 E.3143
G1 X141.452 Y112.334 E.01314
G1 X141.452 Y122.188 E.30897
G1 X141.033 Y122.188 E.01314
G1 X141.033 Y112.334 E.30897
G1 X140.614 Y112.334 E.01314
G1 X140.614 Y122.188 E.30897
G1 X140.195 Y122.188 E.01314
G1 X140.195 Y112.334 E.30897
G1 X139.776 Y112.334 E.01314
G1 X139.776 Y122.188 E.30897
G1 X139.357 Y122.188 E.01314
G1 X139.357 Y112.334 E.30897
G1 X138.938 Y112.334 E.01314
G1 X138.938 Y122.188 E.30897
G1 X138.519 Y122.188 E.01314
G1 X138.519 Y112.334 E.30897
G1 X138.1 Y112.334 E.01314
G1 X138.1 Y122.188 E.30897
G1 X137.681 Y122.188 E.01314
G1 X137.681 Y112.334 E.30897
G1 X137.411 Y112.334 E.00847
G1 X137.411 Y105.38 E.21804
G1 X137.262 Y105.38 E.00467
G1 X137.262 Y124.506 E.59968
G1 X136.843 Y124.506 E.01314
M73 P2 R20
G1 X136.843 Y105.38 E.59968
G1 X136.424 Y105.38 E.01314
M73 P3 R20
M73 Q3 S21
G1 X136.424 Y124.506 E.59968
G1 X136.005 Y124.506 E.01314
G1 X136.005 Y105.38 E.59968
G1 X135.586 Y105.38 E.01314
G1 X135.586 Y124.506 E.59968
G1 X135.167 Y124.506 E.01314
G1 X135.167 Y105.38 E.59968
G1 X135.094 Y105.38 E.00229
G1 X135.094 Y103.062 E.07268
G1 X134.748 Y103.062 E.01085
G1 X134.748 Y124.506 E.67236
G1 X134.329 Y124.506 E.01314
M73 Q3 S20
G1 X134.329 Y103.062 E.67236
G1 X133.91 Y103.062 E.01314
G1 X133.91 Y124.506 E.67236
G1 X133.491 Y124.506 E.01314
G1 X133.491 Y103.062 E.67236
G1 X133.072 Y103.062 E.01314
G1 X133.072 Y124.506 E.67236
G1 X132.776 Y124.506 E.00928
G1 X132.776 Y126.824 E.07268
G1 X132.653 Y126.824 E.00386
G1 X132.653 Y91.988 E1.09226
G1 X132.234 Y92.659 E.0248
G1 X132.234 Y126.824 E1.07122
G1 X131.815 Y126.824 E.01314
M73 P4 R20
M73 Q4 S20
G1 X131.815 Y93.184 E1.05476
G1 X131.396 Y93.583 E.01814
G1 X131.396 Y126.824 E1.04225
G1 X130.977 Y126.824 E.01314
G1 X130.977 Y93.892 E1.03256
G1 X130.558 Y94.129 E.01509
G1 X130.558 Y126.824 E1.02513
G1 X130.139 Y126.824 E.01314
G1 X130.139 Y94.315 E1.0193
G1 X129.72 Y94.463 E.01393
G1 X129.72 Y126.824 E1.01466
G1 X129.301 Y126.824 E.01314
G1 X129.301 Y94.583 E1.01089
G1 X128.882 Y94.684 E.01351
G1 X128.882 Y126.824 E1.00773
G1 X128.463 Y126.824 E.01314
M73 P5 R20
M73 Q5 S20
G1 X128.463 Y94.771 E1.005
G1 X128.044 Y94.839 E.01331
G1 X128.044 Y126.824 E1.00287
G1 X127.626 Y126.824 E.01311
G1 X127.626 Y94.899 E1.00099
G1 X127.207 Y94.951 E.01324
G1 X127.207 Y126.824 E.99936
G1 X126.788 Y126.824 E.01314
G1 X126.788 Y94.99 E.99813
G1 X126.369 Y95.027 E.01319
G1 X126.369 Y126.824 E.99697
G1 X125.95 Y126.824 E.01314
G1 X125.95 Y95.054 E.99613
G1 X125.531 Y95.077 E.01316
G1 X125.531 Y126.824 E.9954
G1 X125.112 Y126.824 E.01314
M73 P6 R20
M73 Q6 S20
G1 X125.112 Y95.093 E.9949
G1 X124.693 Y95.104 E.01314
G1 X124.693 Y126.824 E.99456
G1 X124.274 Y126.824 E.01314
G1 X124.274 Y95.11 E.99437
G1 X123.855 Y95.109 E.01314
G1 X123.855 Y126.824 E.9944
G1 X123.436 Y126.824 E.01314
G1 X123.436 Y95.105 E.99453
G1 X123.017 Y95.092 E.01314
G1 X123.017 Y126.824 E.99493
G1 X122.598 Y126.824 E.01314
G1 X122.598 Y95.075 E.99547
G1 X122.179 Y95.049 E.01316
G1 X122.179 Y126.824 E.99628
G1 X121.76 Y126.824 E.01314
M73 P7 R20
M73 Q7 S20
G1 X121.76 Y95.016 E.99732
G1 X121.341 Y94.975 E.0132
G1 X121.341 Y126.824 E.9986
G1 X120.922 Y126.824 E.01314
G1 X120.922 Y94.92 E1.00033
G1 X120.503 Y94.854 E.0133
G1 X120.503 Y126.824 E1.0024
G1 X120.084 Y126.824 E.01314
M73 P7 R19
G1 X120.084 Y94.773 E1.00494
G1 X119.665 Y94.672 E.01351
G1 X119.665 Y126.824 E1.0081
G1 X119.246 Y126.824 E.01314
G1 X119.246 Y94.545 E1.01209
G1 X118.827 Y94.384 E.01407
G1 X118.827 Y126.824 E1.01713
G1 X118.408 Y126.824 E.01314
M73 P8 R19
M73 Q8 S19
G1 X118.408 Y94.18 E1.02353
G1 X117.989 Y93.928 E.01533
G1 X117.989 Y101.328 E.23202
G1 X117.57 Y101.328 E.01314
G1 X117.57 Y93.606 E.24212
G1 X117.151 Y93.238 E.01749
G1 X117.151 Y101.328 E.25366
G1 X116.732 Y101.328 E.01314
G1 X116.732 Y92.834 E.26632
G1 X116.313 Y92.396 E.01901
G1 X116.313 Y101.328 E.28006
G1 X115.968 Y101.328 E.01082
G1 X115.968 Y99.01 E.07268
G1 X115.894 Y99.01 E.00232
G1 X115.894 Y91.923 E.22221
G1 X115.475 Y91.388 E.02131
G1 X115.475 Y99.01 E.23898
G1 X115.056 Y99.01 E.01314
G1 X115.056 Y90.749 E.25902
G1 X114.637 Y89.946 E.0284
G1 X114.637 Y99.01 E.2842
G1 X114.218 Y99.01 E.01314
G1 X114.218 Y88.818 E.31956
G1 X113.954 Y87.418 E.04467
G1 X113.84 Y85.713 E.05358
G1 X113.917 Y84.017 E.05323
G1 X114.218 Y82.507 E.04828
G1 X114.218 Y72.931 E.30025
G1 X114.637 Y72.931 E.01314
G1 X114.637 Y81.232 E.26027
G1 X115.056 Y80.217 E.03443
G1 X115.056 Y72.931 E.22845
G1 X115.475 Y72.931 E.01314
G1 X115.475 Y79.338 E.20089
G1 X115.894 Y78.63 E.02579
G1 X115.894 Y72.931 E.17869
G1 X116.313 Y72.931 E.01314
G1 X116.313 Y78.178 E.16452
G1 X116.732 Y77.899 E.01578
G1 X116.732 Y77.225 E.02113
G1 X117.151 Y77.669 E.01914
G1 X117.151 Y77.898 E.00718
M204 S1000
;WIPE_START
G1 F8640
G1 X117.151 Y77.669 E-.05288
G1 X116.732 Y77.225 E-.14096
G1 X116.732 Y77.899 E-.15563
G1 X116.313 Y78.178 E-.11623
G1 X116.313 Y76.73 E-.3343
;WIPE_END
G1 Z.6 F720
G1 X139.357 Y92.226 F10800
G1 Z.2 F720
G1 E.8 F2100
M204 S800
G1 F1200
G1 X139.357 Y84.52 E.24162
G1 X138.938 Y84.52 E.01314
G1 X138.938 Y92.057 E.23632
G1 X138.519 Y92.057 E.01314
G1 X138.519 Y84.52 E.23632
G1 X138.1 Y84.52 E.01314
G1 X138.1 Y92.057 E.23632
G1 X137.681 Y92.057 E.01314
G1 X137.681 Y84.52 E.23632
G1 X137.411 Y84.52 E.00847
M73 P9 R19
M73 Q9 S19
G1 X137.411 Y75.249 E.29069
G1 X137.262 Y75.249 E.00467
G1 X137.262 Y96.692 E.67233
G1 X136.843 Y96.692 E.01314
G1 X136.843 Y75.249 E.67233
G1 X136.424 Y75.249 E.01314
G1 X136.424 Y96.692 E.67233
G1 X136.005 Y96.692 E.01314
G1 X136.005 Y75.249 E.67233
G1 X135.586 Y75.249 E.01314
G1 X135.586 Y96.692 E.67233
G1 X135.167 Y96.692 E.01314
G1 X135.167 Y75.249 E.67233
G1 X135.094 Y75.249 E.00229
G1 X135.094 Y70.613 E.14536
G1 X134.748 Y70.613 E.01085
G1 X134.748 Y99.01 E.89037
G1 X134.329 Y99.01 E.01314
G1 X134.329 Y70.613 E.89037
G1 X133.91 Y70.613 E.01314
G1 X133.91 Y82.658 E.37766
G1 X133.491 Y81.414 E.04116
G1 X133.491 Y70.613 E.33866
G1 X133.072 Y70.613 E.01314
G1 X133.072 Y80.397 E.30677
G1 X132.653 Y79.487 E.03141
G1 X132.653 Y70.613 E.27824
G1 X132.234 Y70.613 E.01314
G1 X132.234 Y78.637 E.25159
G1 X131.815 Y77.902 E.02653
M73 P10 R19
M73 Q10 S19
G1 X131.815 Y76.277 E.05095
G1 X131.396 Y77.025 E.02688
G1 X131.396 Y77.801 E.02433
M204 S1000
;WIPE_START
G1 F8640
G1 X131.396 Y77.025 E-.17918
G1 X131.815 Y76.277 E-.19797
G1 X131.815 Y77.902 E-.37522
G1 X131.917 Y78.081 E-.04763
;WIPE_END
G1 Z.6 F720
G1 X133.91 Y99.18 F10800
G1 Z.2 F720
G1 E.8 F2100
M204 S800
G1 F1200
G1 X133.91 Y88.676 E.32935
G1 X133.491 Y90.101 E.04657
G1 X133.491 Y99.01 E.27934
G1 X133.072 Y99.01 E.01314
G1 X133.072 Y90.725 E.25977
M204 S1000
;WIPE_START
G1 F8640
G1 X133.072 Y94.19 E-.8
;WIPE_END
G1 Z.6 F720
G1 X131.815 Y73.659 F10800
G1 Z.2 F720
G1 E.8 F2100
M204 S800
G1 F1200
G1 X131.815 Y70.613 E.09551
G1 X131.396 Y70.613 E.01314
G1 X131.396 Y73.072 E.0771
G1 X130.977 Y72.864 E.01467
G1 X130.977 Y70.613 E.07058
G1 X130.558 Y70.613 E.01314
G1 X130.558 Y72.726 E.06625
G1 X130.139 Y72.637 E.01343
G1 X130.139 Y70.613 E.06346
G1 X129.72 Y70.613 E.01314
G1 X129.72 Y72.585 E.06183
G1 X129.301 Y72.56 E.01316
G1 X129.301 Y70.613 E.06105
G1 X128.882 Y70.613 E.01314
G1 X128.882 Y72.556 E.06092
G1 X128.463 Y72.556 E.01314
G1 X128.463 Y70.613 E.06092
G1 X128.044 Y70.613 E.01314
G1 X128.044 Y72.564 E.06117
G1 X127.626 Y72.574 E.01311
G1 X127.626 Y70.443 E.06682
M204 S1000
;WIPE_START
G1 F8640
G1 X127.626 Y72.574 E-.49205
G1 X128.044 Y72.564 E-.09654
G1 X128.044 Y71.648 E-.21141
;WIPE_END
G1 Z.6 F720
G1 X117.989 Y124.676 F10800
G1 Z.2 F720
G1 E.8 F2100
M204 S800
G1 F1200
G1 X117.989 Y103.062 E.67769
G1 X117.57 Y103.062 E.01314
G1 X117.57 Y124.506 E.67236
G1 X117.151 Y124.506 E.01314
G1 X117.151 Y103.062 E.67236
G1 X116.732 Y103.062 E.01314
G1 X116.732 Y124.506 E.67236
G1 X116.313 Y124.506 E.01314
G1 X116.313 Y103.062 E.67236
G1 X115.968 Y103.062 E.01082
G1 X115.968 Y105.38 E.07268
G1 X115.894 Y105.38 E.00232
G1 X115.894 Y124.506 E.59968
G1 X115.475 Y124.506 E.01314
G1 X115.475 Y105.38 E.59968
G1 X115.056 Y105.38 E.01314
M73 P11 R19
M73 Q11 S19
G1 X115.056 Y124.506 E.59968
G1 X114.637 Y124.506 E.01314
G1 X114.637 Y105.38 E.59968
G1 X114.218 Y105.38 E.01314
G1 X114.218 Y124.506 E.59968
G1 X113.799 Y124.506 E.01314
G1 X113.799 Y105.38 E.59968
G1 X113.65 Y105.38 E.00467
G1 X113.65 Y112.334 E.21804
G1 X113.38 Y112.334 E.00847
G1 X113.38 Y124.506 E.38164
G1 X112.961 Y124.506 E.01314
G1 X112.961 Y112.334 E.38164
G1 X112.542 Y112.334 E.01314
G1 X112.542 Y124.506 E.38164
G1 X112.123 Y124.506 E.01314
G1 X112.123 Y112.334 E.38164
G1 X111.704 Y112.334 E.01314
G1 X111.704 Y124.506 E.38164
G1 X111.332 Y124.506 E.01166
G1 X111.285 Y112.334 E.38165
G1 X110.866 Y112.334 E.01314
G1 X110.866 Y122.188 E.30897
G1 X110.447 Y122.188 E.01314
G1 X110.447 Y112.334 E.30897
G1 X110.028 Y112.334 E.01314
G1 X110.028 Y122.188 E.30897
G1 X109.609 Y122.188 E.01314
G1 X109.61 Y112.334 E.30897
G1 X109.191 Y112.334 E.01314
G1 X109.191 Y122.358 E.3143
M204 S1000
;WIPE_START
G1 F8640
G1 X109.191 Y118.893 E-.8
;WIPE_END
G1 Z.6 F720
G1 X117.989 Y73.151 F10800
G1 Z.2 F720
G1 E.8 F2100
M204 S800
G1 F1200
G1 X117.989 Y72.931 E.0069
G1 X117.57 Y72.931 E.01314
G1 X117.57 Y73.151 E.0069
G1 X117.151 Y73.433 E.01584
G1 X117.151 Y72.931 E.01574
G1 X116.732 Y72.931 E.01314
G1 X116.732 Y74.155 E.03838
M204 S1000
;WIPE_START
G1 F8640
G1 X116.732 Y72.931 E-.28263
G1 X117.151 Y72.931 E-.09675
G1 X117.151 Y73.433 E-.11591
G1 X117.57 Y73.151 E-.11662
G1 X117.57 Y72.931 E-.0508
G1 X117.989 Y72.931 E-.09675
G1 X117.989 Y73.106 E-.04054
;WIPE_END
G1 Z.6 F720
G1 X113.799 Y99.18 F10800
G1 Z.2 F720
G1 E.8 F2100
M204 S800
G1 F1200
G1 X113.799 Y72.931 E.82302
G1 X113.65 Y72.931 E.00467
M73 P12 R19
M73 Q12 S19
G1 X113.65 Y77.567 E.14536
G1 X113.38 Y77.567 E.00847
G1 X113.38 Y96.692 E.59965
G1 X112.961 Y96.692 E.01314
M73 P12 R18
G1 X112.961 Y77.567 E.59965
G1 X112.542 Y77.567 E.01314
G1 X112.542 Y96.692 E.59965
G1 X112.123 Y96.692 E.01314
G1 X112.123 Y77.567 E.59965
G1 X111.704 Y77.567 E.01314
G1 X111.704 Y96.862 E.60498
M204 S1000
;WIPE_START
G1 F8640
G1 X111.704 Y93.397 E-.8
;WIPE_END
G1 Z.6 F720
G1 X120.354 Y78.025 F10800
G1 Z.2 F720
G1 E.8 F2100
M204 S800
;TYPE:Perimeter
;WIDTH:0.419999
G1 F1200
G1 X120.363 Y77.953 E.00228
G1 X120.341 Y77.727 E.00712
G1 X120.181 Y77.476 E.00933
G1 X119.974 Y77.356 E.0075
G1 X119.246 Y77.121 E.02399
G1 X118.688 Y76.844 E.01953
G1 X118.172 Y76.418 E.02098
