; generated by PrusaSlicer 2.9.0 on 2025-03-06 at 20:28:02 UTC


;
;
; 

; external perimeters extrusion width = 0.45mm
; perimeters extrusion width = 0.45mm
; infill extrusion width = 0.45mm
; solid infill extrusion width = 0.45mm
; top infill extrusion width = 0.40mm
; first layer extrusion width = 0.42mm

M73 P0 R15
M73 Q0 S15
M201 X1000 Y1000 Z200 E5000 ; sets maximum accelerations, mm/sec^2
M203 X200 Y200 Z12 E120 ; sets maximum feedrates, mm / sec
M204 S1250 T1250 ; sets acceleration (S) and retract acceleration (R), mm/sec^2
M205 X8.00 Y8.00 Z0.40 E4.50 ; sets the jerk limits, mm/sec
M205 S0 T0 ; sets the minimum extruding and travel feed rate, mm/sec

; printing object Body1.obj id:0 copy 0
; stop printing object Body1.obj id:0 copy 0

;TYPE:Custom
M862.3 P "MK3S" ; printer model check
M862.1 P0.4 ; nozzle diameter check
M115 U3.14.1 ; tell printer latest fw version
G90 ; use absolute coordinates
M83 ; extruder relative mode
M104 S215 ; set extruder temp
M140 S60 ; set bed temp
M190 S60 ; wait for bed temp
M109 S215 ; wait for extruder temp
G28 W ; home all without mesh bed level
G80 X102.998 Y72.1116 W41.8562 H53.3194 ; mesh bed levelling

G1 Z0.2 F720
G1 Y-3 F1000 ; go outside print area
G92 E0
G1 X60 E9 F1000 ; intro line
G1 X100 E12.5 F1000 ; intro line

G92 E0
M221 S95

; Don't change E values below. Excessive value can damage the printer.
M907 E430 ; set extruder motor current
G21 ; set units to millimeters
G90 ; use absolute coordinates
M83 ; use relative distances for extrusion

M900 K0.05 ; Filament gcode LA 1.5
M900 K30 ; Filament gcode LA 1.0




M107
;LAYER_CHANGE
;Z:0.2
;HEIGHT:0.2
G1 E-.8 F2100
G1 Z.6 F720
G1 X108.855 Y76.716 F10800
G1 Z.2 F720
G1 E.8 F2100
M204 S800
;TYPE:Skirt/Brim
;WIDTH:0.42
G1 F1200
G1 X109.579 Y76.064 E.03055
G1 X115.333 Y72.694 E.20908
G1 X116.178 Y72.377 E.0283
G1 X117.064 Y72.301 E.02788
G1 X127.558 Y73.767 E.33223
G1 X128.374 Y74.023 E.02681
G1 X128.911 Y74.282 E.01869
G1 X129.483 Y74.681 E.02187
G1 X129.97 Y75.195 E.0222
G1 X130.35 Y75.861 E.02404
G1 X141.874 Y104.757 E.97541
G1 X142.307 Y106.02 E.04186
M73 P1 R15
M73 Q1 S15
G1 X144.624 Y116.071 E.32341
G1 X144.626 Y117.043 E.03048
G1 X144.278 Y118.014 E.03234
G1 X143.973 Y118.472 E.01725
G1 X143.387 Y119.092 E.02675
G1 X142.124 Y119.975 E.04832
G1 X132.971 Y124.533 E.3206
G1 X131.677 Y125.072 E.04395
G1 X130.766 Y125.235 E.02902
G1 X129.915 Y125.19 E.02672
G1 X129.013 Y124.916 E.02956
G1 X128.381 Y124.558 E.02277
G1 X122.559 Y119.425 E.24336
G1 X121.006 Y117.781 E.07091
G1 X119.807 Y116.06 E.06577
G1 X103.663 Y89.852 E.96513
G1 X103.341 Y89.132 E.02473
M73 P1 R14
M73 Q1 S14
G1 X103.193 Y88.266 E.02755
G1 X103.236 Y87.366 E.02825
G1 X103.398 Y86.594 E.02473
G1 X103.747 Y85.637 E.03194
G1 X108.825 Y76.768 E.32044
M204 S1000
;WIPE_START
G1 F8640
G1 X108.855 Y76.716 E-.01386
G1 X109.579 Y76.064 E-.22497
G1 X111.676 Y74.836 E-.56117
;WIPE_END
G1 Z.6 F720
; printing object Body1.obj id:0 copy 0
G1 X122.628 Y85.123 F10800
G1 Z.2 F720
G1 E.8 F2100
M204 S800
;TYPE:Perimeter
;WIDTH:0.419999
G1 F1200
G1 X122.593 Y85.165 E.00171
G1 X122.187 Y85.501 E.01652
G1 X121.724 Y85.754 E.01654
G1 X121.238 Y85.913 E.01603
G1 X120.726 Y85.98 E.01619
G1 X120.279 Y85.958 E.01403
G1 X119.764 Y85.843 E.01655
G1 X119.28 Y85.632 E.01655
G1 X118.845 Y85.334 E.01653
G1 X118.475 Y84.959 E.01652
;WIDTH:0.466261
G1 X118.343 Y84.805 E.00714
;WIDTH:0.512522
G1 X118.211 Y84.651 E.00792
;WIDTH:0.512926
G1 X118.04 Y84.317 E.01466
G1 X117.981 Y84.062 E.01023
;WIDTH:0.466463
G1 X117.923 Y83.807 E.00921
;WIDTH:0.419999
G1 X117.859 Y83.305 E.01587
G1 X117.883 Y82.817 E.01532
G1 X117.983 Y82.365 E.01451
G1 X118.188 Y81.884 E.01639
G1 X118.483 Y81.447 E.01653
G1 X118.856 Y81.074 E.01654
G1 X119.293 Y80.778 E.01655
G1 X119.788 Y80.567 E.01687
G1 X120.293 Y80.459 E.01619
G1 X120.82 Y80.444 E.01653
G1 X121.34 Y80.53 E.01653
G1 X121.835 Y80.713 E.01655
G1 X122.286 Y80.986 E.01653
G1 X122.677 Y81.339 E.01652
G1 X122.995 Y81.761 E.01657
G1 X123.226 Y82.234 E.0165
G1 X123.364 Y82.743 E.01654
G1 X123.403 Y83.269 E.01654
G1 X123.341 Y83.793 E.01654
G1 X123.181 Y84.295 E.01652
G1 X122.942 Y84.74 E.01584
G1 X122.666 Y85.077 E.01366
M204 S1000
G1 X122.666 Y85.077 F10800
G1 X122.359 Y84.865
M204 S800
;TYPE:External perimeter
G1 F1200
G1 X122.348 Y84.879 E.00056
G1 X122 Y85.174 E.0143
G1 X121.602 Y85.397 E.0143
G1 X121.17 Y85.542 E.01429
G1 X120.693 Y85.601 E.01507
G1 X120.297 Y85.581 E.01243
G1 X119.782 Y85.447 E.01669
G1 X119.333 Y85.219 E.01579
G1 X118.956 Y84.918 E.01513
G1 X118.655 Y84.56 E.01467
G1 X118.433 Y84.161 E.01432
G1 X118.294 Y83.737 E.01399
G1 X118.236 Y83.306 E.01364
G1 X118.253 Y82.889 E.01309
G1 X118.333 Y82.506 E.01227
G1 X118.505 Y82.089 E.01414
G1 X118.755 Y81.708 E.01429
G1 X119.074 Y81.382 E.0143
G1 X119.45 Y81.121 E.01435
G1 X119.869 Y80.936 E.01436
G1 X120.358 Y80.832 E.01568
G1 X120.765 Y80.817 E.01277
G1 X121.216 Y80.886 E.01431
G1 X121.646 Y81.039 E.01431
G1 X122.126 Y81.346 E.01787
G1 X122.381 Y81.572 E.01068
G1 X122.659 Y81.933 E.01429
G1 X122.864 Y82.34 E.01429
G1 X123 Y82.904 E.01819
G1 X123.017 Y83.343 E.01377
G1 X122.979 Y83.688 E.01088
G1 X122.847 Y84.121 E.01419
G1 X122.633 Y84.524 E.01431
G1 X122.397 Y84.818 E.01182
M204 S1000
;WIPE_START
G1 F8640
G1 X122.359 Y84.865 E-.01396
G1 X122.348 Y84.879 E-.00411
G1 X122 Y85.174 E-.10534
G1 X121.602 Y85.397 E-.10534
G1 X121.17 Y85.542 E-.10522
G1 X120.693 Y85.601 E-.11098
G1 X120.297 Y85.581 E-.09155
G1 X119.782 Y85.447 E-.12287
G1 X119.333 Y85.219 E-.11628
G1 X119.251 Y85.153 E-.02435
;WIPE_END
G1 Z.6 F720
G1 X115.863 Y83.293 F10800
G1 Z.2 F720
G1 E.8 F2100
M204 S800
;TYPE:Perimeter
G1 F1200
G1 X115.916 Y83.302 E.00169
G1 X116.411 Y83.485 E.01655
G1 X116.862 Y83.758 E.01653
G1 X117.254 Y84.112 E.01656
;WIDTH:0.466463
G1 X117.433 Y84.312 E.00945
;WIDTH:0.512926
G1 X117.612 Y84.512 E.01049
G1 X117.838 Y84.996 E.02088
;WIDTH:0.493502
G1 X117.889 Y85.256 E.00993
;WIDTH:0.456751
G1 X117.94 Y85.516 E.00912
;WIDTH:0.419999
G1 X117.979 Y86.041 E.01651
G1 X117.917 Y86.565 E.01654
G1 X117.762 Y87.059 E.01623
G1 X117.523 Y87.507 E.01592
G1 X117.18 Y87.928 E.01703
G1 X116.763 Y88.273 E.01697
G1 X116.312 Y88.522 E.01615
G1 X115.798 Y88.688 E.01694
G1 X115.282 Y88.751 E.0163
G1 X114.749 Y88.715 E.01675
G1 X114.239 Y88.579 E.01655
G1 X113.764 Y88.35 E.01653
G1 X113.34 Y88.036 E.01654
G1 X112.984 Y87.646 E.01656
G1 X112.878 Y87.48 E.00618
G1 X112.661 Y87.076 E.01438
G1 X112.523 Y86.703 E.01247
G1 X112.434 Y86.184 E.01651
G1 X112.446 Y85.656 E.01656
G1 X112.557 Y85.141 E.01652
G1 X112.765 Y84.656 E.01655
G1 X113.06 Y84.219 E.01653
G1 X113.432 Y83.846 E.01652
G1 X113.869 Y83.55 E.01655
G1 X114.364 Y83.34 E.01686
G1 X114.906 Y83.228 E.01735
G1 X115.396 Y83.216 E.01537
G1 X115.804 Y83.283 E.01296
M204 S1000
G1 X115.804 Y83.283 F10800
G1 X115.774 Y83.656
M204 S800
;TYPE:External perimeter
G1 F1200
G1 X115.797 Y83.66 E.00073
G1 X116.282 Y83.846 E.01629
G1 X116.695 Y84.112 E.0154
G1 X117.035 Y84.444 E.0149
G1 X117.297 Y84.825 E.0145
G1 X117.478 Y85.238 E.01414
G1 X117.576 Y85.668 E.01383
G1 X117.595 Y86.094 E.01337
G1 X117.544 Y86.497 E.01274
G1 X117.423 Y86.893 E.01298
M73 Q2 S14
G1 X117.21 Y87.296 E.01429
G1 X116.924 Y87.651 E.01429
G1 X116.576 Y87.946 E.0143
G1 X116.178 Y88.17 E.01432
G1 X115.58 Y88.338 E.01948
G1 X115.294 Y88.375 E.00904
G1 X114.694 Y88.313 E.01891
G1 X114.382 Y88.23 E.01012
G1 X113.983 Y88.043 E.01382
G1 X113.614 Y87.776 E.01428
G1 X113.302 Y87.443 E.01431
G1 X113.195 Y87.277 E.00619
M73 P2 R14
G1 X113.011 Y86.937 E.01212
G1 X112.893 Y86.633 E.01022
G1 X112.812 Y86.07 E.01783
G1 X112.848 Y85.566 E.01584
G1 X112.956 Y85.16 E.01317
G1 X113.126 Y84.791 E.01274
G1 X113.429 Y84.379 E.01604
G1 X113.65 Y84.154 E.00989
G1 X114.024 Y83.894 E.01428
G1 X114.548 Y83.686 E.01768
G1 X114.934 Y83.604 E.01237
G1 X115.341 Y83.589 E.01277
G1 X115.715 Y83.647 E.01187
M204 S1000
;WIPE_START
G1 F8640
G1 X115.774 Y83.656 E-.01378
G1 X115.797 Y83.66 E-.00539
G1 X116.282 Y83.846 E-.11994
G1 X116.695 Y84.112 E-.11343
G1 X117.035 Y84.444 E-.10973
G1 X117.297 Y84.825 E-.10677
G1 X117.478 Y85.238 E-.10412
G1 X117.576 Y85.668 E-.10183
G1 X117.595 Y86.094 E-.09846
G1 X117.581 Y86.208 E-.02655
;WIPE_END
G1 Z.6 F720
G1 X123.316 Y78.685 F10800
G1 Z.2 F720
G1 E.8 F2100
M204 S800
;TYPE:Perimeter
G1 F1200
G1 X123.227 Y78.746 E.00338
G1 X123.024 Y79.05 E.01146
G1 X122.953 Y79.294 E.00797
G1 X123.004 Y79.8 E.01595
G1 X123.239 Y80.274 E.01659
G1 X124.463 Y81.986 E.06599
G1 X124.748 Y82.451 E.0171
G1 X125.084 Y83.152 E.02437
G1 X125.298 Y83.892 E.02415
G1 X125.373 Y84.663 E.02429
G1 X125.356 Y85.171 E.01594
G1 X125.294 Y85.705 E.01686
G1 X125.194 Y86.249 E.01734
G1 X124.913 Y87.347 E.03554
G1 X124.42 Y88.91 E.05139
G1 X124.208 Y89.651 E.02417
G1 X124.083 Y90.222 E.01833
G1 X124.045 Y90.748 E.01654
G1 X124.078 Y91.26 E.01609
G1 X124.192 Y91.807 E.01752
G1 X124.375 Y92.333 E.01746
G1 X124.667 Y92.953 E.02149
G1 X125.134 Y93.761 E.02926
G1 X125.704 Y94.618 E.03227
G1 X126.382 Y95.554 E.03624
G1 X127.204 Y96.609 E.04193
G1 X127.904 Y97.438 E.03402
G1 X128.551 Y98.13 E.0297
G1 X129.129 Y98.648 E.02434
G1 X129.692 Y99.036 E.02144
G1 X130.366 Y99.356 E.02339
G1 X130.925 Y99.532 E.01838
G1 X132.247 Y99.854 E.04266
G1 X132.961 Y100.059 E.02329
G1 X133.696 Y100.321 E.02447
G1 X134.35 Y100.609 E.02241
G1 X134.981 Y100.945 E.02241
G1 X135.582 Y101.329 E.02236
G1 X136.15 Y101.759 E.02234
G1 X136.685 Y102.234 E.02243
G1 X137.08 Y102.64 E.01776
G1 X137.544 Y103.187 E.02249
G1 X137.93 Y103.712 E.02043
G1 X138.282 Y104.262 E.02047
G1 X138.587 Y104.811 E.01969
G1 X138.912 Y105.497 E.0238
G1 X139.146 Y106.08 E.0197
G1 X139.386 Y106.801 E.02383
G1 X139.546 Y107.398 E.01938
G1 X139.674 Y107.997 E.01921
G1 X139.772 Y108.602 E.01922
G1 X139.841 Y109.205 E.01903
G1 X139.903 Y110.445 E.03893
G1 X139.895 Y112.887 E.07657
G1 X139.938 Y113.468 E.01827
G1 X140.038 Y114.059 E.01879
G1 X140.31 Y114.848 E.02617
G1 X140.609 Y115.403 E.01977
G1 X140.958 Y115.862 E.01808
G1 X141.576 Y116.533 E.0286
G1 X141.21 Y116.892 E.01607
G1 X140.726 Y117.214 E.01823
G1 X139.315 Y117.971 E.05021
G1 X138.515 Y118.355 E.02782
G1 X138.004 Y118.577 E.01747
G1 X137.411 Y118.704 E.01901
G1 X136.537 Y118.482 E.02827
G1 X135.984 Y118.478 E.01734
G1 X135.505 Y118.628 E.01574
G1 X135.033 Y118.92 E.0174
G1 X134.659 Y119.273 E.01612
G1 X134.094 Y120.046 E.03002
G1 X133.67 Y120.532 E.02022
G1 X133.102 Y120.954 E.02219
G1 X132.369 Y121.37 E.02643
G1 X131.399 Y121.862 E.0341
G1 X130.817 Y122.099 E.0197
G1 X130.473 Y122.143 E.01087
G1 X130.206 Y122.041 E.00896
G1 X129.937 Y121.841 E.01051
G1 X129.605 Y121.354 E.01848
G1 X129.304 Y120.692 E.0228
G1 X128.98 Y120.232 E.01764
G1 X128.6 Y119.888 E.01607
G1 X128.083 Y119.502 E.02023
G1 X126.654 Y118.646 E.05223
G1 X125.783 Y118.07 E.03274
G1 X124.932 Y117.41 E.03377
G1 X124.058 Y116.585 E.03768
G1 X123.61 Y116.101 E.02068
G1 X123.202 Y115.598 E.02031
G1 X122.865 Y115.145 E.0177
G1 X122.555 Y114.669 E.01781
G1 X122.227 Y114.115 E.02019
G1 X121.981 Y113.628 E.01711
G1 X121.706 Y113.015 E.02107
G1 X121.521 Y112.526 E.01639
G1 X121.317 Y111.875 E.02139
G1 X121.165 Y111.198 E.02176
G1 X121.081 Y110.665 E.01692
G1 X121.025 Y109.979 E.02158
G1 X121.032 Y109.413 E.01775
G1 X121.153 Y108.457 E.03021
G1 X121.337 Y107.715 E.02397
G1 X121.573 Y106.975 E.02435
G1 X122.218 Y105.108 E.06193
G1 X122.408 Y104.484 E.02045
G1 X122.59 Y103.76 E.02341
G1 X122.72 Y103.014 E.02374
G1 X122.776 Y102.227 E.02474
G1 X122.761 Y101.674 E.01735
G1 X122.697 Y100.796 E.0276
G1 X122.522 Y99.836 E.0306
G1 X122.29 Y98.889 E.03057
G1 X121.951 Y97.726 E.03798
G1 X121.506 Y96.382 E.04439
G1 X121.121 Y95.368 E.03401
G1 X120.745 Y94.579 E.0274
G1 X120.404 Y94.069 E.01924
G1 X119.945 Y93.602 E.02053
G1 X119.773 Y93.479 E.00663
G1 X119.095 Y93.114 E.02414
G1 X118.35 Y92.847 E.02481
G1 X116.414 Y92.318 E.06293
G1 X115.627 Y92.049 E.02608
G1 X115.098 Y91.809 E.01821
G1 X114.417 Y91.404 E.02484
G1 X113.951 Y91.052 E.01831
G1 X113.512 Y90.66 E.01845
G1 X113.041 Y90.166 E.0214
G1 X112.616 Y89.645 E.02108
G1 X111.989 Y88.682 E.03603
G1 X111.705 Y88.125 E.0196
G1 X110.925 Y86.216 E.06466
G1 X110.628 Y85.779 E.01657
G1 X110.32 Y85.556 E.01192
G1 X110.005 Y85.436 E.01057
G1 X109.615 Y85.417 E.01224
G1 X109.091 Y85.632 E.01776
G1 X108.917 Y85.76 E.00677
G1 X108.538 Y86.128 E.01656
G1 X107.807 Y87 E.03568
G1 X107.144 Y87.658 E.02929
G1 X106.699 Y87.963 E.01692
G1 X106.412 Y88.089 E.00983
G1 X106.248 Y88.113 E.0052
G1 X106.243 Y87.729 E.01204
G1 X106.432 Y87.045 E.02225
G1 X106.833 Y86.234 E.02837
G1 X107.378 Y85.475 E.0293
G1 X108.034 Y84.805 E.0294
G1 X108.647 Y84.331 E.0243
G1 X109.159 Y84.014 E.01888
G1 X110.745 Y83.135 E.05685
G1 X111.186 Y82.773 E.01789
G1 X111.547 Y82.416 E.01592
G1 X111.904 Y81.856 E.02082
G1 X112.063 Y81.319 E.01756
G1 X112.072 Y80.957 E.01135
G1 X111.972 Y80.523 E.01396
G1 X111.772 Y80.072 E.01547
G1 X111.464 Y79.504 E.02026
G1 X111.252 Y78.947 E.01869
G1 X111.222 Y78.617 E.01039
G1 X111.284 Y78.587 E.00216
G1 X111.613 Y78.652 E.01051
G1 X112.279 Y79.012 E.02374
G1 X112.747 Y79.235 E.01625
G1 X113.257 Y79.382 E.01664
G1 X113.808 Y79.427 E.01733
G1 X114.348 Y79.376 E.01701
G1 X114.873 Y79.254 E.0169
G1 X115.473 Y79.046 E.01991
G1 X116.206 Y78.72 E.02515
G1 X116.627 Y78.407 E.01645
G1 X116.934 Y77.916 E.01816
G1 X117.024 Y77.397 E.01652
G1 X116.932 Y76.896 E.01597
G1 X116.676 Y76.127 E.02541
G1 X116.624 Y75.74 E.01224
G1 X116.689 Y75.425 E.01008
G1 X116.858 Y75.309 E.00643
G1 X117.038 Y75.364 E.0059
G1 X117.209 Y75.514 E.00713
G1 X117.4 Y75.845 E.01198
G1 X117.77 Y76.672 E.02841
G1 X118.04 Y77.124 E.01651
G1 X118.292 Y77.422 E.01224
G1 X118.591 Y77.661 E.012
G1 X118.866 Y77.804 E.00972
G1 X119.283 Y77.932 E.01368
G1 X119.548 Y77.953 E.00833
G1 X120.087 Y77.931 E.01691
G1 X120.649 Y77.819 E.01797
G1 X121.134 Y77.681 E.01581
G1 X122.751 Y77.115 E.05372
G1 X123.417 Y76.911 E.02184
G1 X124.233 Y76.724 E.02625
G1 X125.056 Y76.613 E.02604
G1 X125.593 Y76.584 E.01686
G1 X126.419 Y76.614 E.02592
G1 X127.138 Y76.765 E.02304
G1 X127.478 Y76.951 E.01215
G1 X127.175 Y77.347 E.01563
G1 X126.58 Y77.885 E.02515
G1 X126.106 Y78.177 E.01746
G1 X125.578 Y78.387 E.01782
G1 X124.938 Y78.458 E.02019
G1 X124.265 Y78.426 E.02113
G1 X123.75 Y78.468 E.0162
G1 X123.546 Y78.527 E.00666
G1 X123.365 Y78.651 E.00688
M204 S1000
G1 X123.365 Y78.651 F10800
G1 X123.549 Y78.973
M204 S800
;TYPE:External perimeter
G1 F1200
G1 X123.418 Y79.104 E.00581
G1 X123.334 Y79.318 E.00721
G1 X123.361 Y79.668 E.01101
G1 X123.545 Y80.055 E.01344
G1 X124.777 Y81.778 E.06641
G1 X125.08 Y82.27 E.01812
G1 X125.438 Y83.018 E.026
G1 X125.669 Y83.82 E.02617
G1 X125.751 Y84.651 E.02618
G1 X125.732 Y85.199 E.01719
G1 X125.667 Y85.761 E.01774
G1 X125.563 Y86.329 E.01811
G1 X125.276 Y87.45 E.03628
G1 X124.623 Y89.522 E.06812
G1 X124.459 Y90.26 E.0237
M73 Q3 S14
G1 X124.429 Y90.666 E.01276
G1 X124.448 Y91.186 E.01632
G1 X124.549 Y91.685 E.01596
G1 X124.717 Y92.174 E.01621
G1 X124.993 Y92.765 E.02045
G1 X125.448 Y93.552 E.0285
G1 X126.009 Y94.396 E.03178
M73 P3 R14
G1 X126.68 Y95.322 E.03586
G1 X127.493 Y96.366 E.04149
G1 X128.18 Y97.181 E.03342
G1 X128.804 Y97.85 E.02868
G1 X129.347 Y98.34 E.02293
G1 X129.856 Y98.697 E.01949
G1 X130.48 Y98.997 E.02171
G1 X131.014 Y99.166 E.01756
G1 X132.344 Y99.49 E.04292
G1 X133.076 Y99.7 E.02388
G1 X133.835 Y99.97 E.02526
G1 X134.515 Y100.27 E.0233
G1 X135.171 Y100.619 E.0233
G1 X135.797 Y101.019 E.02329
G1 X136.39 Y101.467 E.0233
G1 X136.945 Y101.962 E.02332
G1 X137.359 Y102.386 E.01858
G1 X137.84 Y102.953 E.02331
G1 X138.241 Y103.499 E.02124
G1 X138.606 Y104.069 E.02122
G1 X138.922 Y104.638 E.02041
G1 X139.258 Y105.346 E.02457
G1 X139.5 Y105.95 E.0204
G1 X139.747 Y106.693 E.02455
G1 X139.912 Y107.31 E.02003
G1 X140.045 Y107.927 E.01979
G1 X140.146 Y108.55 E.01979
G1 X140.217 Y109.175 E.01972
G1 X140.28 Y110.437 E.03962
G1 X140.271 Y112.86 E.07597
G1 X140.31 Y113.408 E.01723
G1 X140.399 Y113.948 E.01716
G1 X140.644 Y114.673 E.02399
G1 X140.911 Y115.177 E.01788
G1 X141.233 Y115.604 E.01677
G1 X141.847 Y116.258 E.02813
G1 X141.995 Y116.524 E.00954
G1 X141.861 Y116.796 E.00951
